public/assets/img/material-icons/hotel_class.svg

<svg height="24" viewBox="0 0 24 24" width="24" xmlns="http://www.w3.org/2000/svg"><path d="m8.58 10h-7.58l6.17 4.41-2.34 7.59 6.17-4.69 6.18 4.69-2.35-7.59 6.17-4.41h-7.58l-2.42-8zm12.78 12-1.86-6.01 4.18-2.99h-3.44l-3.08 2.2 1.46 4.72zm-4.36-14-1.82-6-1.04 3.45.77 2.55z"/></svg>

<svg xmlns="http://www.w3.org/2000/svg" width="24" height="24" viewBox="0 0 24 24"><path d="M8.58 10H1l6.17 4.41L4.83 22 11 17.31 17.18 22l-2.35-7.59L21 10h-7.58L11 2l-2.42 8zm12.78 12-1.86-6.01L23.68 13h-3.44l-3.08 2.2 1.46 4.72L21.36 22zM17 8l-1.82-6-1.04 3.45.77 2.55H17z"/></svg>
